images/pe-leap.svg

<svg height="64" viewBox="0 0 76 64" width="76" xmlns="http://www.w3.org/2000/svg"><g fill="#e0be41" fill-rule="evenodd" transform="translate(1 1)"><path d="m42.7845976 60.946639c-.2621804 1.3340009-1.5561411 2.2028831-2.8901421 1.9407026-1.3340009-.2621805-2.2028831-1.5561412-1.9407026-2.8901421l1.8068367-9.1933689c.2621805-1.3340009 1.5561412-2.2028831 2.8901421-1.9407026s2.2028831 1.5561412 1.9407026 2.8901421z" fill-rule="nonzero"/><path d="m24.1874019 11.917409c-4.0912297-.7959271-8.1841004-1.5934954-12.2769712-2.3910636 7.3126833 22.3499626 8.0692244 18.8396777-11.43017031 32.212895 33.97378121 17.3019793 65.19053641 14.4103841 65.44654601-28.0379699 2.4632714-.6974619 4.9265429-1.3932828 7.3865321-2.0907447-2.0956679-.8090559-4.1913359-1.61811171-6.288645-2.42716756.0114876-2.09074472.0213341-4.18313053.0328217-6.27387526-1.8183242 2.14818277-3.6382896 4.29964771-5.4566139 6.44783047-5.8685268-6.37562264-12.2753301-9.35583647-18.3752502-9.35747756-7.2470398 0-14.0608326 4.20446466-19.0382492 11.91757311m20.6038462 3.2427878c0-2.1826456 1.7707327-3.9533784 3.9550194-3.9533784 2.1826456 0 3.9533784 1.7707328 3.9533784 3.9533784 0 2.1842866-1.7707328 3.9566605-3.9533784 3.9566605-2.1842867 0-3.9550194-1.7723739-3.9550194-3.9566605"/><path d="m35.32293 42.3543836c.7478825-1.1353277 2.274526-1.449414 3.4098536-.7015315 1.1353277.7478825 1.449414 2.274526.7015315 3.4098536l-11.0428738 16.7637028c-.7478825 1.1353276-2.2745259 1.449414-3.4098536.7015315-1.1353276-.7478825-1.449414-2.274526-.7015315-3.4098536z" fill-rule="nonzero"/></g></svg>

<?xml version="1.0" encoding="UTF-8"?>
<svg width="76px" height="64px" viewBox="0 0 76 64" version="1.1" xmlns="http://www.w3.org/2000/svg" xmlns:xlink="http://www.w3.org/1999/xlink">
    <!-- Generator: Sketch 50.2 (55047) - http://www.bohemiancoding.com/sketch -->
    <title>Artboard 1</title>
    <desc>Created with Sketch.</desc>
    <defs></defs>
    <g id="Artboard-1" stroke="none" stroke-width="1" fill="none" fill-rule="evenodd">
        <g id="Group" transform="translate(1.000000, 1.000000)" fill="#E0BE41">
            <path d="M42.7845976,60.946639 C42.5224172,62.2806399 41.2284565,63.1495221 39.8944555,62.8873416 C38.5604546,62.6251611 37.6915724,61.3312004 37.9537529,59.9971995 L39.7605896,50.8038306 C40.0227701,49.4698297 41.3167308,48.6009475 42.6507317,48.863128 C43.9847326,49.1253085 44.8536148,50.4192692 44.5914343,51.7532701 L42.7845976,60.946639 Z" id="Stroke-1" fill-rule="nonzero"></path>
            <path d="M24.1874019,11.917409 C20.0961722,11.1214819 16.0033015,10.3239136 11.9104307,9.5263454 C19.223114,31.876308 19.9796551,28.3660231 0.480260393,41.7392404 C34.4540416,59.0412197 65.6707968,56.1496245 65.9268064,13.7012705 C68.3900778,13.0038086 70.8533493,12.3079877 73.3133385,11.6105258 C71.2176706,10.8014699 69.1220026,9.99241409 67.0246935,9.18335824 C67.0361811,7.09261352 67.0460276,5.00022771 67.0575152,2.90948298 C65.239191,5.05766575 63.4192256,7.20913069 61.6009013,9.35731345 C55.7323745,2.98169081 49.3255712,0.00147697822 43.2256511,-0.000164108691 C35.9786113,-0.000164108691 29.1648185,4.20430055 24.1874019,11.917409 M44.7912481,15.1601968 C44.7912481,12.9775512 46.5619808,11.2068184 48.7462675,11.2068184 C50.9289131,11.2068184 52.6996459,12.9775512 52.6996459,15.1601968 C52.6996459,17.3444834 50.9289131,19.1168573 48.7462675,19.1168573 C46.5619808,19.1168573 44.7912481,17.3444834 44.7912481,15.1601968" id="Fill-2"></path>
            <path d="M35.32293,42.3543836 C36.0708125,41.2190559 37.597456,40.9049696 38.7327836,41.6528521 C39.8681113,42.4007346 40.1821976,43.9273781 39.4343151,45.0627057 L28.3914413,61.8264085 C27.6435588,62.9617361 26.1169154,63.2758225 24.9815877,62.52794 C23.8462601,61.7800575 23.5321737,60.253414 24.2800562,59.1180864 L35.32293,42.3543836 Z" id="Stroke-5" fill-rule="nonzero"></path>
        </g>
    </g>
</svg>
